DuckDuckGo/Assets.xcassets/FolderWithPlus.imageset/Folder-Add-24.svg

<svg width="24" height="24" viewBox="0 0 24 24" fill="none" xmlns="http://www.w3.org/2000/svg">
<path fill-rule="evenodd" clip-rule="evenodd" d="M6 3C3.79086 3 2 4.79086 2 7V17C2 19.2091 3.79086 21 6 21H12C12.5523 21 13 20.5523 13 20C13 19.4477 12.5523 19 12 19H6C4.89543 19 4 18.1046 4 17V12H20V14C20 14.5523 20.4477 15 21 15C21.5523 15 22 14.5523 22 14V10C22 7.79086 20.2091 6 18 6H13C13 4.34315 11.6569 3 10 3H6ZM20 10H4V7C4 5.89543 4.89543 5 6 5H10C10.5523 5 11 5.44772 11 6C11 7.10457 11.8954 8 13 8H18C19.1046 8 20 8.89543 20 10Z" fill="black" fill-opacity="0.84"/>
<path d="M19 15C19 14.4477 18.5523 14 18 14C17.4477 14 17 14.4477 17 15V17H15C14.4477 17 14 17.4477 14 18C14 18.5523 14.4477 19 15 19H17V21C17 21.5523 17.4477 22 18 22C18.5523 22 19 21.5523 19 21V19H21C21.5523 19 22 18.5523 22 18C22 17.4477 21.5523 17 21 17H19V15Z" fill="black" fill-opacity="0.84"/>
</svg>

<svg viewBox="0 0 24 24" fill="none" xmlns="http://www.w3.org/2000/svg">
  <path fill-rule="evenodd" clip-rule="evenodd" d="M6 3C3.79 3 2 4.79 2 7v10c0 2.21 1.79 4 4 4h6c.552 0 1-.448 1-1s-.448-1-1-1H6c-1.105 0-2-.895-2-2v-5h16v2c0 .552.448 1 1 1s1-.448 1-1v-4c0-2.21-1.79-4-4-4h-5c0-1.657-1.343-3-3-3H6zm14 7H4V7c0-1.105.895-2 2-2h4c.552 0 1 .448 1 1 0 1.105.895 2 2 2h5c1.105 0 2 .895 2 2z" fill="#000"/>
  <path d="M19 15c0-.552-.448-1-1-1s-1 .448-1 1v2h-2c-.552 0-1 .448-1 1s.448 1 1 1h2v2c0 .552.448 1 1 1s1-.448 1-1v-2h2c.552 0 1-.448 1-1s-.448-1-1-1h-2v-2z" fill="#000"/>
</svg>
